!!!OTL: 1506. Lob des Matrosenlebens.
!!!ARE: Europa, Mitteleuropa, Deutschland, Helgoland
!!!SCT: E1506
!!!TXL: @@DE
!!!YEM: Copyright 1995, estate of Helmut Schaffrath.
**kern	**text
*ICvox	*
*M2/4	*
*k[f#]	*
*G:	*
!LO:TX:a:t=Kräftig rasch.	!
!LO:TX:a:t=Auf Helgoland von Herm. Keſtner 1838 gehört.	!
{8d	Jch
=1	=1
8.g	bin
16g	nur
8g	ein
16gL	Ma-
16aJ	.
=2	=2
4g	-tro-
8g}	-ſe,
{16gL	al-
16aJ	.
=3	=3
8b	-lein
8b	ich
8b	dün-
16bL	-ke
16ccJ	.
=4	=4
4b	mich
8r}	.
{8a	in
=5	=5
8g	mei-
8a	-ner
8b	wei-
8cc	-ten
=6	=6
4dd	Ho-
8cc}	-ſſe
{8b	mehr
=7	=7
8b	als
8a	ein
8a	Kö-
8a	-nig
=8	=8
4.a}	ſich;
{8d	denn
=9	=9
8cc	der
8cc	trägt
8cc	ſchwe-
8cc	-re
=10	=10
4ee	Bür-
8dd}	-de
{8cc	auf
=11	=11
8b	ſei-
8b	-nem
8b	Na-
8b	-cken
=12	=12
(4dd	rund
8cc)}	.
{8b	und
=13	=13
8e	iſt
8e	bei
8e	al-
8e	-ler
=14	=14
4a	Wür-
8cc}	-de
{8a	ge-
=15	=15
8g	-plagt
8g	als
8f#	wie
8f#	ein
=16	=16
4g	Hund.
8r}	.
==	==
!!!AGN: Staende -, Seemanns - Lied
!!!ONB: ESAC (Essen Associative Code) Database: ERK3
!!!AMT: simple duple
!!!AIN: vox
!!!EED: Helmut Schaffrath
!!!EEV: 1.0
!!!GTL: Staendelieder (Berufslieder). 4. Seemanslieder.
!!!URL-scan: https://rosdok.uni-rostock.de/mcrviewer/recordIdentifier/rosdok_ppn745177999/iview2/phys_0357.iview2?x=-128.77276441889285&y=1617.718981738668&scale=0.5870222003877487&rotation=0&layout=singlePageLayout
!!!ENC: Anna Maria Matuszewska
!!!EEV: 2025/03/01
*-	*-
